X:21067 
T:GLENGARIFF HORNPIPE, The  
B:DMI.0851
Z:Nordberg/Black
R:hornpipe
%Q:1/4=150
M:C|
L:1/8 % 1/16 in source
K:G
DF|G2D2 G2D2|GABG AGFD|BGBd cBAG|E2A2 AcBA|
G2D2 G2D2|GABG AFDc|BABc dBAB|G2GF G2:|
dc|BGBd gfga|bagf gfed|efgf edcB|cBAG FAdF|
G2D2 G2D2|GABG AFDc|BABc dBAB|G2GF G2:|

%%%

